public/assets/images/others/icon/03.svg

<svg width="40" height="40" viewBox="0 0 40 40" fill="none" xmlns="http://www.w3.org/2000/svg">
<path fill-rule="evenodd" clip-rule="evenodd" d="M5 5H35C35.663 5 36.2989 5.26339 36.7678 5.73223C37.2366 6.20107 37.5 6.83696 37.5 7.5V32.5C37.5 33.163 37.2366 33.7989 36.7678 34.2678C36.2989 34.7366 35.663 35 35 35H5C4.33696 35 3.70107 34.7366 3.23223 34.2678C2.76339 33.7989 2.5 33.163 2.5 32.5V7.5C2.5 6.83696 2.76339 6.20107 3.23223 5.73223C3.70107 5.26339 4.33696 5 5 5ZM35 10V7.5H5V10H35ZM5 12.5V32.5H35V12.5H5ZM23.75 17.5H10V20H23.75V17.5ZM26.25 23.75H10V26.25H26.25V23.75Z" fill="#132A64"/>
</svg>

<svg xmlns="http://www.w3.org/2000/svg" width="40" height="40" fill="none" viewBox="0 0 40 40"><path fill="#132a64" fill-rule="evenodd" d="M5 5h30a2.5 2.5 0 0 1 2.5 2.5v25A2.5 2.5 0 0 1 35 35H5a2.5 2.5 0 0 1-2.5-2.5v-25A2.5 2.5 0 0 1 5 5m30 5V7.5H5V10zM5 12.5v20h30v-20zm18.75 5H10V20h13.75zm2.5 6.25H10v2.5h16.25z" clip-rule="evenodd"/></svg>
